X:1
T:Seeking the Lost (Buchanan)
T:Seeking the Lost (Buchanan)
T:Adoniram Judson Buchanan
T:Adoniram Judson Buchanan, 1889
T:Public Domain Courtesy of the Cyber Hymnal™
T:Public Domain Courtesy of the Cyber Hymnal™
C:Adoniram Judson Buchanan
Z:Public Domain
Z:Courtesy of the Cyber Hymnal™
%%score ( 1 2 ) ( 3 4 )
L:1/8
Q:1/4=115
M:4/4
K:G
V:1 treble 
V:2 treble 
V:3 bass 
V:4 bass 
V:1
 [DG]>[DA] | [GB]2 (B>A) G2 [DG]>[DB] | [Gd]2 [Ge]2 [Gd]2 [GB]>[DA] | [DG]2 [DG]>[DG] [DG]2 [GB]2 | %4
w: 1.~Will you|go and * speak to the|lost ones here To the|ones who have gone a-|
w: 2.~Will you|go and * speak to the|sin- ners blind And who|walk in the mid- night|
w: 3.~Will you|tell them * all if they|will be- lieve That their|souls will be tru- ly|
w: 4.~Will you|go and * tell them the|Sav- ior died And pro-|vid- ed for them the|
 [FA]6 [DG]>[DA] | [GB]2 (B>A) G2 [DG]>[DB] | [Gd]2 [Ge]2 [Gd]2 [DG]>[DA] | [DB]2 D>D [GB]2 [FA]2 | %8
w: stray? Will you|lead them * back to the|Shep- herd’s fold From their|wand- ’rings in sin’s dark|
w: gloom? Will you|bear some * light to their|dark- ened mind? Will you|tell them their com- ing|
w: blest? For the|Sav- ior * said that they|shall re- ceive Pre- cious|bless- ings of peace and|
w: way? If they|full- y * trust in the|Cru- ci- fied He will|par- don their sins to-|
 G6 ||"^Refrain" G>[GB] | d4- (dB) G>[Ge] | d6 [DG]>[DA] | B4- (BA) G>[GB] | A6 ([DG]>[DA]) | %14
w: way?||||||
w: doom?|Will you|seek * * them now?|* Will you|show * * them the|way? Some *|
w: rest.||||||
w: day.||||||
 [GB]2 [GB]>[GA] G2 [DG]>[DB] | [Gd]2 [Ge]2 [Gd]2 [DG]>[DA] | [DB]2 D>D [GB]2 [FA]2 | G6 |] %18
w: ||||
w: one may be lost, That you|might lead home, To that|bright land of per- fect|day.|
w: ||||
w: ||||
V:2
 x2 | x2 G2 G2 x2 | x8 | x8 | x8 | x2 G2 G2 x2 | x8 | x2 D>D x4 | G6 || G3/2 x/ | %10
 (G2 G2 G2) G3/2 x/ | (G2 G2 G2) x2 | (G2 G>G G2) G3/2 x/ | (F2 F>F F2) x2 | x4 G2 x2 | x8 | %16
 x2 D>D x4 | G6 |] %18
V:3
 [G,B,]>[G,C] | [G,D]2 (D>C) [G,B,]2 [G,B,]>[G,B,] | [G,B,]2 [G,C]2 [G,B,]2 [G,D]>[G,C] | %3
w: ~ ~|~ ~ * ~ ~ ~|~ ~ ~ ~ ~|
 [G,B,]2 [G,B,]>[G,B,] [G,B,]2 [G,D]2 | [D,D]6 [G,B,]>[G,C] | [G,D]2 (D>C) [G,B,]2 [G,B,]>[G,B,] | %6
w: ~ ~ ~ ~ ~|~ ~ ~|~ ~ * ~ ~ ~|
 [G,B,]2 [G,C]2 [G,B,]2 [B,,G,]>[C,G,] | [D,G,]2 [D,B,]>[D,B,] [D,D]2 [D,C]2 | [G,,B,]6 || %9
w: ~ ~ ~ ~ ~|~ ~ ~ ~ ~|~|
 [G,B,]>[G,B,] | [G,B,]2 [G,B,]2 [G,B,]2 [G,B,]>[G,C] | [G,B,]2 [G,B,]2 [G,B,]2 [G,B,]>[G,C] | %12
w: Will you|seek them now, Will you|seek them now? Will you|
 [G,D]2 [G,D]>[G,D] [G,D]2 [G,B,]>[G,D] | [D,D]2 [D,D]>[D,D] [D,D]2 ([G,B,]>[G,C]) | %14
w: show them the way? Will you|show them the way? * *|
 [G,D]2 [G,D]>[G,C] [G,B,]2 [G,B,]>[G,B,] | [G,B,]2 [G,C]2 [G,B,]2 [B,,G,]>[C,G,] | %16
w: ||
 [D,G,]2 [D,B,]>[D,B,] [D,D]2 [D,C]2 | [G,,B,]6 |] %18
w: ||
V:4
 x2 | x2 G,2 x4 | x8 | x8 | x8 | x2 G,2 x4 | x8 | x8 | x6 || x2 | x8 | x8 | x8 | x8 | x8 | x8 | %16
 x8 | x6 |] %18

